src/lib/packages/icons/src/assets/filled/home-dash-shield.svg

<svg width="24" height="24" viewBox="0 0 24 24" fill="none" xmlns="http://www.w3.org/2000/svg">
<path fill-rule="evenodd" clip-rule="evenodd" d="M20.27 9.06205L13.588 3.56901C12.665 2.81001 11.334 2.81001 10.411 3.56901L3.72898 9.06205C3.16798 9.52305 2.90096 10.251 3.03196 10.965L4.48704 18.9471C4.70404 20.1351 5.73902 20.9991 6.94602 20.9991H17.052C18.26 20.9991 19.295 20.1351 19.511 18.9471L20.9659 10.964C21.0979 10.252 20.831 9.52305 20.27 9.06205ZM15.5 13.0561C15.5 15.7231 13.312 17.056 12 17.5C10.688 17.056 8.49998 15.7221 8.49998 13.0561C8.49998 12.5811 8.49998 11.289 8.49998 10.834C10.25 10.332 11.1249 9.94501 12.0069 9.50101C12.8749 9.94501 13.75 10.332 15.5 10.776C15.5 11.253 15.5 12.5651 15.5 13.0561Z" fill="currentColor"/>
</svg>

<svg xmlns="http://www.w3.org/2000/svg" width="24" height="24" fill="none"><path fill="currentColor" fill-rule="evenodd" d="m20.27 9.062-6.682-5.493a2.501 2.501 0 0 0-3.177 0L3.729 9.062a1.996 1.996 0 0 0-.697 1.903l1.455 7.982A2.5 2.5 0 0 0 6.946 21h10.106a2.5 2.5 0 0 0 2.459-2.052l1.455-7.983a1.993 1.993 0 0 0-.696-1.902Zm-4.77 3.994c0 2.667-2.188 4-3.5 4.444-1.312-.444-3.5-1.778-3.5-4.444v-2.222c1.75-.502 2.625-.889 3.507-1.333.868.444 1.743.831 3.493 1.275v2.28Z" clip-rule="evenodd"/></svg>
